!!!!SEGMENT: pl-gd--ee-1638--007-002_marenzio-luca--il-terzo-libro-de-madrigalia-a-sei-voci-danzana-con-maniere.krn
!!!cenid: 15xx:843
!!!COM: Marenzio, Luca
!!!COM-rismID:
!!!CDT: ~1553-1599/08/22
!!!CNT: Italian
!!!GTL: Il Terzo Libro de madrigalia a sei voci
!!!OTL: Danzana con maniere
!!!OMV: 002
!!!PDT: 1585
!!!AGN:
!!!SMS-siglum: PL-GD
!!!SMS-shelfmark: Ee 1638
!!!SMS-variant:
!!!SMS-altvar:
!!!SMS-shelfwork: 007-002 G
!!!NIFC-rismSourceID: 990039250
!!!NIFC-islandoraID: pl-gd:57883
!!!URL-pdf-islandora: https://repozytorium.nifc.pl/islandora/object/pl-gd%3A57883/datastream/PDF/view
!!!URL-scan: https://polish.musicsources.pl/pl/lokalizacje/galeria/klocki-introligatorskie/655 @EN{Scan on Polish Music Herritage in Open Access Website} @PL{Skany w portalu Dziedzictwo Muzyki Polskiej w otwartym dostępie}
!!!ONB-nifc: UWAGA: zbiór na stronach: Canto: s. 694-704, Alto: s. 542-552, Tenore: s. 390-400, Basso: s. 237-248, Quinto: s. 85-96, Sesto: s. 3-14. Uwaga: utwory podzielone wg tytułów w spisach treści dostępnych na końcu każdej księgi głosowej.
!!!AIN: 1 alto 1 bass  1 soprn 1 tenor 2 vox
!!!key: d
**kern	**text	**kern	**text	**kern	**text	**kern	**text	**kern	**text	**kern	**text
*part6	*part6	*part5	*part5	*part4	*part4	*part3	*part3	*part2	*part2	*part1	*part1
*staff6	*staff6	*staff5	*staff5	*staff4	*staff4	*staff3	*staff3	*staff2	*staff2	*staff1	*staff1
*I"SESTO	*	*I"QVINTO	*	*I"BASSO	*	*I"TENORE	*	*I"ALTO	*	*I"CANTO	*
*I'V II	*	*I'V I	*	*I'B	*	*I'T	*	*I'A	*	*I'S	*
*ICvox	*	*ICvox	*	*ICvox	*	*ICvox	*	*ICvox	*	*ICvox	*
*Ivox	*	*Ivox	*	*Ibass 	*	*Itenor	*	*Ialto	*	*Isoprn	*
*clefC4	*	*clefC1	*	*clefF4	*	*clefC4	*	*clefC3	*	*clefC1	*
*k[]	*	*k[]	*	*k[]	*	*k[]	*	*k[]	*	*k[]	*
*d:	*	*d:	*	*d:	*	*d:	*	*d:	*	*d:	*
*M2/1	*	*M2/1	*	*M2/1	*	*M2/1	*	*M2/1	*	*M2/1	*
*met(C)	*	*met(C)	*	*met(C)	*	*met(C)	*	*met(C)	*	*met(C)	*
=1-	=1-	=1-	=1-	=1-	=1-	=1-	=1-	=1-	=1-	=1-	=1-
!LO:TX:a:i:t=Prima parte.	!	!LO:TX:a:i:t=Prima parte.	!	!LO:TX:a:i:t=Prima parte.	!	!LO:TX:a:i:t=Prima parte.	!	!LO:TX:a:i:t=Prima parte.	!	!LO:TX:a:i:t=Prima parte.	!
00r	.	2f/	DAn-	00r	.	2D/	DAn-	2d\	DAn-	2a\	DAn-
.	.	4f/	-za-	.	.	4D/	-za-	4d\	-za-	4a\	-za-
.	.	4f/	-ua	.	.	4D/	-ua	4d\	-ua	4a\	-ua
.	.	2e/	con	.	.	2A\	con	2c#X/	con	2a\	con
.	.	4g/	ma-	.	.	4G/	ma-	4d\	ma-	4b\	ma-
.	.	2g/	-nie-	.	.	2c\	-nie-	2e\	-nie-	2cc\	-nie-
=2-	=2-	=2-	=2-	=2-	=2-	=2-	=2-	=2-	=2-	=2-	=2-
.	.	.	.	.	.	.	.	.	.	.	.
.	.	4a\	-re	.	.	4F/	-re	4f\	-re	4cc\	-re
.	.	4g/	ſopr'	.	.	4G/	ſopr'	4d\	ſopr'-	4b-X\	ſopr'-
.	.	4d/	hu-	.	.	4B-X\	hu-	4d\	-hu-	4g\	-hu-
.	.	2e/	-ma-	.	.	2A/	-ma-	2c#X/	-ma-	2a\	-ma-
.	.	2e/	-ne	.	.	2A/	-ne	2c#/	-ne	2a\	-ne
=3-	=3-	=3-	=3-	=3-	=3-	=3-	=3-	=3-	=3-	=3-	=3-
00r	.	4a\	D'a-	00r	.	4D/	D'a-	4d\	D'a-	4f#X/	D'a-
.	.	4a\	-mo-	.	.	4D/	-mo-	4d\	-mo-	4f#/	-mo-
.	.	4a\	-ro-	.	.	4D/	-ro-	4d\	-ro-	4f#/	-ro-
.	.	8a\	-ſe	.	.	8D/	-ſe	8d\	-ſe	8f#/	-ſe
!	!	!LO:SIC:v:t=custos cc	!	!	!	!LO:SIC:v:t=custos F	!	!LO:SIC:v:t=custos A	!	!LO:SIC:v:t=custos a	!
.	.	8b\	don-	.	.	8G/	don-	8d\	don-	8g/	don-
!	!	!LO:LB:g=original	!	!	!	!LO:LB:g=original	!	!LO:LB:g=original	!	!LO:LB:g=original	!
.	.	2.cc\	-zell'-	.	.	4F/	-zel-	4A/	-zel-	4a\	-zel-
.	.	.	.	.	.	4F/	-le	4f\	-le al-	4a\	-l' al-
.	.	.	.	.	.	4r	.	4e\	-leg-	4g\	-leg-
.	.	4a\	-al-	.	.	4f\	al-	4f\	-ro	4cc\	-ro
=4-	=4-	=4-	=4-	=4-	=4-	=4-	=4-	=4-	=4-	=4-	=4-
.	.	4g\	-leg-	.	.	4e\	-leg-	4cny/	co-	4cc\	co-
.	.	4cc\	-ro	.	.	4f\	-ro	8F/	-ro	8a\	-ro
.	.	.	.	.	.	.	.	8f\	al-	8a\	al-
.	.	4cc\	co-	.	.	4c\	co-	4e\	-leg-	4g\	-leg-
.	.	8a\	-ro	.	.	8F/	-ro	4f\	-ro	4cc\	-ro
.	.	8a\	al-	.	.	8f\	al-	.	.	.	.
.	.	4g\	-leg-	.	.	4e\	-leg-	4c/	co-	4cc\	co-
.	.	4cc\	-ro	.	.	4f\	-ro	8F/	-ro	8a\	-ro
.	.	.	.	.	.	.	.	8f\	al-	8a\	al-
.	.	4cc\	co-	.	.	1.c\	co-	4e\	-leg-	4g\	-leg-
.	.	8a\	-ro	.	.	.	.	4f\	-ro	4cc\	-ro
.	.	8a\	al-	.	.	.	.	.	.	.	.
=5-	=5-	=5-	=5-	=5-	=5-	=5-	=5-	=5-	=5-	=5-	=5-
0r	.	4e/	-leg-	0r	.	.	.	4g\	co-	1cc	co-
.	.	4f/	-ro	.	.	.	.	2f\	.	.	.
.	.	2g/	co-	.	.	.	.	.	.	.	.
.	.	.	.	.	.	.	.	4e\	.	.	.
.	.	1a	-ro	.	.	1F	-ro	1f	-ro	1cc	-ro
=6-	=6-	=6-	=6-	=6-	=6-	=6-	=6-	=6-	=6-	=6-	=6-
1A	E	2r	.	1D	E	2r	.	2r	.	2r	.
.	.	2.dd\	E	.	.	2.d\	E	2.f#X\	E	2.a\	E
2A/	ſi	.	.	2D/	ſi	.	.	.	.	.	.
!	!	!	!	!	!	!	!	!LO:SIC:v:t=custos f#	!	!	!
.	.	4dd\	ſi	.	.	4d\	ſi	4f#\	ſi-	4a\	ſi-
!	!	!	!	!	!	!	!	!LO:LB:g=original	!	!	!
4.A/	ſta-	4.a\	ſta-	4.D/	ſta-	4.d\	ſta-	4.f#\	-ſta-	4.dd\	-ſta-
!	!	!LO:SIC:v:t=custos a	!	!	!	!	!	!	!	!LO:SIC:v:t=custos dd	!
8A/	-ua-	8a\	-ua-	8D/	-ua-	8d\	-ua-	8f#\	-ua-	8dd\	-ua-
!	!	!LO:LB:g=original	!	!	!	!	!	!	!	!LO:LB:g=original	!
=7-	=7-	=7-	=7-	=7-	=7-	=7-	=7-	=7-	=7-	=7-	=7-
1A	-no	1a	-no	1D	-no	1.d	-no	1f#yX	-no	1dd	-no
8B\	lau-	4.dd\	l au-	8GG/	l'au-	.	.	4.g\	lau-	1r	.
8c\	.	.	.	8AA/	.	.	.	.	.	.	.
2d\	.	.	.	8BB/	.	.	.	.	.	.	.
.	.	16cc\	.	8C/	.	.	.	8e\	.	.	.
.	.	16b\	.	.	.	.	.	.	.	.	.
.	.	4a\	.	4D/	.	2r	.	8f#\	.	.	.
.	.	.	.	.	.	.	.	8e\	.	.	.
4B\	-r' im-	4b\	-re	4GG/	-re	.	.	8d\	.	.	.
.	.	.	.	.	.	.	.	8c\	.	.	.
=8-	=8-	=8-	=8-	=8-	=8-	=8-	=8-	=8-	=8-	=8-	=8-
!	!	!	!	!LO:SIC:v:t=custos GG	!	!	!	!	!	!	!
1d	-mo-	1r	.	1r	.	8G/	l'au-	8B/	.	4.dd\	lau-
.	.	.	.	.	.	8A\	.	8c\	.	.	.
.	.	.	.	.	.	8Bny\	.	8d\	.	.	.
!	!	!	!	!	!	!LO:SIC:v:t=custos d	!	!	!	!	!
.	.	.	.	.	.	8c\	.	8e\	.	16cc\	.
.	.	.	.	.	.	.	.	.	.	16bny\	.
!	!	!	!	!	!	!LO:LB:g=original	!	!	!	!	!
.	.	.	.	.	.	4d\	.	4f#X\	.	4a\	.
.	.	.	.	.	.	4G/	-re	4g\	-re	4b\	-re
!LO:SIC:v:t=custos c	!	!	!	!LO:LB:g=original	!	!	!	!	!	!	!
1d	-te	4.dd\	l'au-	8GG/	l'au-	1r	.	1r	.	4.b\	l'au-
.	.	.	.	8AA/	.	.	.	.	.	.	.
.	.	.	.	8BB/	.	.	.	.	.	.	.
.	.	16cc\	.	8C/	.	.	.	.	.	16a\	.
.	.	16b\	.	.	.	.	.	.	.	16g\	.
.	.	4a\	.	4D/	.	.	.	.	.	4f#X/	.
.	.	4b\	-r'im-	4GG/	-r'im-	.	.	.	.	4g/	-r'im-
!LO:LB:g=original	!	!	!	!	!	!	!	!	!	!	!
=9-	=9-	=9-	=9-	=9-	=9-	=9-	=9-	=9-	=9-	=9-	=9-
4r	.	1cc	-mo-	1C	-mo-	2r	.	8c\	l'au-	1g	-mo-
.	.	.	.	.	.	.	.	8d\	.	.	.
8c\	l'au-	.	.	.	.	.	.	8e\	.	.	.
8d\	.	.	.	.	.	.	.	8fny\	.	.	.
8e\	.	.	.	.	.	8c\	l'au-	4g\	-r'im-	.	.
8f\	.	.	.	.	.	8d\	.	.	.	.	.
!	!	!	!	!	!	!	!	!LO:SIC:v:t=custos e	!	!	!
4g\	.	.	.	.	.	8e\	.	4c/	-mot'-	.	.
.	.	.	.	.	.	8f\	.	.	.	.	.
!	!	!	!	!	!	!	!	!LO:LB:g=original	!	!	!
2c\	-r'im-	1cc	-t'e	1C	-t'e	4g\	.	2e\	-e	1g	-te e
.	.	.	.	.	.	4c\	-r'im-	.	.	.	.
4G/	-mo-	.	.	.	.	4c\	-mot'-	2e\	pia-	.	.
4c\	-t'e	.	.	.	.	4G/	-e	.	.	.	.
=10-	=10-	=10-	=10-	=10-	=10-	=10-	=10-	=10-	=10-	=10-	=10-
1c	pia-	1g	pia-	1C	pia-	1G	pia-	1e	-ne	1cc	pia-
1c	-ne	1g	-ne	1C	-ne	1G	-ne	1e	.	1.cc	-ne
=11-	=11-	=11-	=11-	=11-	=11-	=11-	=11-	=11-	=11-	=11-	=11-
2A/	In-	4r	.	2F\	In-	1r	.	4r	.	.	.
.	.	4a\	In-	.	.	.	.	4c/	In-	.	.
4.d\	-ten-	4.b\	-ten-	4.G\	-ten-	.	.	4.g\	-ten-	2r	.
8B\	-te	8dd\	-te	8G\	-te	.	.	8d\	-te	.	.
2e\	for-	2cc#X\	for-	2A\	fors'-	2r	.	2a\	fors'-	2r	.
!	!	!LO:SIC:v:t=custos a	!	!	!	!	!	!	!	!	!
2d\	-s'al	2dd\	-ſe	2D/	-al-	4r	.	2f#X\	-al	4r	.
.	.	.	.	.	.	4A/	al	.	.	4a\	al
!	!	!LO:LB:g=original	!	!	!	!	!	!	!	!	!
=12-	=12-	=12-	=12-	=12-	=12-	=12-	=12-	=12-	=12-	=12-	=12-
4d\	bel	0r	.	4BB/	-bel	4G/	bel	4g\	bel	4dd\	bel
4.e\	gra-	.	.	4.C/	gra-	4.G/	gra-	4.g\	gra-	4.cc\	gra-
!	!	!	!	!	!	!	!	!	!	!LO:SIC:v:t=custos a	!
8d\	-to	.	.	8GG/	-to	8B\	-co	8fny\	-to	8b\	-to
!	!	!	!	!	!	!	!	!	!	!LO:LB:g=original	!
4c\	la-	.	.	4AA/	la-	4c\	la-	4e\	la-	2a\	la-
!LO:SIC:v:t=custos A	!	!	!	!	!	!LO:SIC:v:t=custos d	!	!	!	!	!
1B	-uo-	.	.	1E	-uo-	4e\	-uo-	1e	-uo-	.	.
!	!	!	!	!	!	!LO:LB:g=original	!	!	!	!	!
.	.	.	.	.	.	8d\	.	.	.	8g#X/	-uo-
.	.	.	.	.	.	8c\	.	.	.	8f#X/	.
.	.	.	.	.	.	2B\	.	.	.	2g#X/	.
!LO:LB:g=original	!	!	!	!	!	!	!	!	!	!	!
=13-	=13-	=13-	=13-	=13-	=13-	=13-	=13-	=13-	=13-	=13-	=13-
!	!	!	!	!LO:SIC:v:t=custos AA	!	!	!	!	!	!	!
4A\	-ro	4r	.	1AA	-ro	4.c\	-ro	0e	-ro	2a\	-ro
4c\	Et	4a\	Et	.	.	.	.	.	.	.	.
.	.	.	.	.	.	8B\	.	.	.	.	.
4e\	aſ-	4ccny\	aſ-	.	.	2A/	.	.	.	2r	.
4d\	-con-	4b\	-con-	.	.	.	.	.	.	.	.
!	!	!	!	!LO:LB:g=original	!	!	!	!	!	!	!
1c	-dea	2a\	-dea	2AA/	[Et]	4r	.	.	.	4r	.
.	.	.	.	.	.	4A/	[Et]	.	.	4a\	[Et]
.	.	2r	.	4AA/	aſ-	4A/	aſ-	.	.	4cc\	aſ-
.	.	.	.	4GG/	-con-	4B\	-con-	.	.	4b\	-con-
=14-	=14-	=14-	=14-	=14-	=14-	=14-	=14-	=14-	=14-	=14-	=14-
4r	.	4r	.	2FF/	-dea	1c	-dia	4r	.	2a\	-dea
4F/	Et	4a\	Et	.	.	.	.	4f\	[Et]	.	.
4.F/	aſ-	4.cc\	aſ-	4r	.	.	.	4.a\	aſ-	4r	.
.	.	.	.	4F\	[Et]	.	.	.	.	4a\	[Et]
8G/	-con-	8b\	-con-	.	.	.	.	8g\	-con-	.	.
!	!	!	!	!	!	!	!	!LO:SIC:v:t=custos e	!	!	!
2A/	-dea	2a\	-dea	4F\	aſ-	2r	.	2f\	-dea	4cc\	aſ-
.	.	.	.	4G\	-con-	.	.	.	.	4b\	-con-
!	!	!	!	!	!	!	!	!LO:LB:g=original	!	!	!
2r	.	2a\	ne	4A\	-dea	2c\	[Et]	2e\	[et]	4cc\	-dea
.	.	.	.	4B\	ne	.	.	.	.	4dd\	ne
=15-	=15-	=15-	=15-	=15-	=15-	=15-	=15-	=15-	=15-	=15-	=15-
2r	.	2g\	l'alt'	1c	l'alt'	4c\	aſ-	2e\	aſ-	1ee	l'alt'
.	.	.	.	.	.	4d\	-con-	.	.	.	.
2C/	Et	4cc\	on-	.	.	4e\	-dia	2g\	-con-	.	.
.	.	4dd\	.	.	.	4f\	ne	.	.	.	.
4C/	aſ-	4ee\	.	4c\	on-	2g\	l'alt-	4c/	-dea	8e/	on-
.	.	.	.	.	.	.	.	.	.	8fny/	.
4G/	-con-	8dd\	.	8B\	.	.	.	2d\	ne	8gny\	.
.	.	8cc\	.	8A\	.	.	.	.	.	8a\	.
2d\	-dea	4b\	.	4G\	.	4g\	-on-	.	.	8b\	.
.	.	.	.	.	.	.	.	.	.	8cc\	.
.	.	8a\	.	8F\	.	4d\	-de	4A/	l'alt'	8dd\	.
!	!	!	!	!	!	!	!	!	!	!LO:SIC:v:t=custos ff	!
.	.	8g\	.	8E\	.	.	.	.	.	8ee\	.
!	!	!	!	!	!	!	!	!	!	!LO:LB:g=original	!
=16-	=16-	=16-	=16-	=16-	=16-	=16-	=16-	=16-	=16-	=16-	=16-
4d\	ne	8a\	.	4D/	.	4r	.	1A	on-	4.ff\	.
.	.	8b\	.	.	.	.	.	.	.	.	.
4e\	l'alt'	8cc\	.	8C/	.	2c\	ne	.	.	.	.
!	!	!LO:SIC:v:t=custos ee	!	!	!	!	!	!	!	!	!
.	.	8dd\	.	8BB/	.	.	.	.	.	8ee\	.
!	!	!LO:LB:g=original	!	!LO:SIC:v:t=custos GG	!	!	!	!	!	!	!
1.E	on-	2.ee\	.	4AA/	.	.	.	.	.	8dd\	.
.	.	.	.	.	.	.	.	.	.	8cc\	.
!	!	!	!	!LO:LB:g=original	!	!LO:SIC:v:t=custos e	!	!	!	!	!
.	.	.	.	8GG/	.	4d\	l'al-	.	.	8b\	.
.	.	.	.	8FF/	.	.	.	.	.	8a\	.
!	!	!	!	!	!	!LO:LB:g=original	!	!	!	!	!
.	.	.	.	1EE	.	1e	-t'on-	1B	-de o-	4g#X/	.
.	.	8dd\	.	.	.	.	.	.	.	2a\	-de-
.	.	8cc\	.	.	.	.	.	.	.	.	.
.	.	2b\	.	.	.	.	.	.	.	.	.
.	.	.	.	.	.	.	.	.	.	8g#/	-o
.	.	.	.	.	.	.	.	.	.	8f/	.
=17-	=17-	=17-	=17-	=17-	=17-	=17-	=17-	=17-	=17-	=17-	=17-
4E/	-de o-	2a\	-de o-	2AA/	-de o-	2e\	-de o-	1c	-ce-	4e/	.
!LO:SIC:v:t=custos G	!	!	!	!	!	!	!	!	!	!	!
4C/	-ce-	.	.	.	.	.	.	.	.	2ee\	ce-
!LO:LB:g=original	!	!	!	!	!	!	!	!	!	!	!
2.G/	-a-	2g/	-ce-	2C/	-ce-	2E/	-ce-	.	.	.	.
.	.	.	.	.	.	.	.	.	.	8dd\	.
.	.	.	.	.	.	.	.	.	.	8cc\	.
.	.	1g	-a-	1GG	-a-	1G	-a-	1d	-a-	4b\	.
8F/	.	.	.	.	.	.	.	.	.	2cc\	-a-
8E/	.	.	.	.	.	.	.	.	.	.	.
2D/	.	.	.	.	.	.	.	.	.	.	.
.	.	.	.	.	.	.	.	.	.	4b\	.
=18-	=18-	=18-	=18-	=18-	=18-	=18-	=18-	=18-	=18-	=18-	=18-
2C/	-ne	1g	-ne	1C	-ne	2G/	-ne	1e	-ne	0cc	-ne
4r	.	.	.	.	.	2C/	Il	.	.	.	.
4G/	Il	.	.	.	.	.	.	.	.	.	.
4F/	gran	2r	.	2FF/	Il	4c\	gran	2A/	Il	.	.
4G/	ce-	.	.	.	.	4B\	ce-	.	.	.	.
4A/	-leſt'	2f/	Il	2.F\	gran	4A/	-leſt	2.a\	gran	.	.
4B\	Au-	.	.	.	.	4G/	Au-	.	.	.	.
=19-	=19-	=19-	=19-	=19-	=19-	=19-	=19-	=19-	=19-	=19-	=19-
1.c	-ri-	4f/	gran	.	.	2A/	-ri-	.	.	2r	.
.	.	4g\	ce-	4E\	ce-	.	.	4g\	ce-	.	.
.	.	4a\	-leſt'	4F\	-leſt'	2A/	-ga	2f\	-leſt'	2cc\	Il
.	.	4b\	Au-	4G\	Au-	.	.	.	.	.	.
.	.	1.cc	-ri-	1A	-ri-	1r	.	2e\	Au-	4c/	gran
!	!	!	!	!	!	!	!	!	!	!LO:SIC:v:t=custos e	!
.	.	.	.	.	.	.	.	.	.	4d/	ce-
!	!	!	!	!	!	!	!	!	!	!LO:LB:g=original	!
2A/	-ga	.	.	.	.	.	.	2c/	-ri-	4e/	-leſt'
.	.	.	.	.	.	.	.	.	.	4f/	Au-
=20-	=20-	=20-	=20-	=20-	=20-	=20-	=20-	=20-	=20-	=20-	=20-
2r	.	.	.	1G	-gai	2r	.	1d	-ga	2gny/	-ri-
2B\	i	2b\	-ga	.	.	2G/	i	.	.	2d/	-ga i
2c\	bei	4a\	i	2F\	bei	2A/	bei	4r	.	2f/	bei
.	.	4a\	be-	.	.	.	.	4f\	i	.	.
2d\	crin-	2.dd\	-i	2D/	crin-	2A/	crin	4f\	bei	2a\	crin-
!	!	!	!	!	!	!	!	!LO:SIC:v:t=custos e	!	!	!
.	.	.	.	.	.	.	.	4f\	crin	.	.
!	!	!	!	!	!	!	!	!LO:LB:g=original	!	!	!
=21-	=21-	=21-	=21-	=21-	=21-	=21-	=21-	=21-	=21-	=21-	=21-
2e\	-d'o-	.	crin	1A	-d'o-	1A	d'o-	1e	d'o-	1a	-d'o-
.	.	8cc\	d'o-	.	.	.	.	.	.	.	.
.	.	8b\	.	.	.	.	.	.	.	.	.
!	!	!LO:SIC:v:t=custos dd	!	!	!	!	!	!	!	!	!
1A	-ro	2cc#X\	.	.	.	.	.	.	.	.	.
!	!	!LO:LB:g=original	!	!LO:SIC:v:t=custos G	!	!	!	!	!	!	!
.	.	1dd	-ro	1D	-ro	1A	-ro	1f#X	-ro	1a	-ro
1d\	Quan-	.	.	.	.	.	.	.	.	.	.
!	!	!	!	!LO:LB:g=original	!	!	!	!	!	!	!
=22-	=22-	=22-	=22-	=22-	=22-	=22-	=22-	=22-	=22-	=22-	=22-
.	.	1b	Quan-	1G	Quan-	1B	Quan-	2r	.	1g	Quã(n)-
!LO:SIC:v:t=custos c	!	!	!	!	!	!	!	!	!	!	!
1G	-do	.	.	.	.	.	.	1g	Quan-	.	.
!	!	!	!	!	!	!LO:SIC:v:t=custos b	!	!	!	!	!
.	.	1g	-do	1C	-do	1c	-do	.	.	1e	-do
!LO:LB:g=original	!	!	!	!	!	!	!	!	!	!	!
1c\	Quã(n)-	.	.	.	.	.	.	1e\	-do	.	.
!	!	!	!	!	!	!LO:LB:g=original	!	!	!	!	!
=23-	=23-	=23-	=23-	=23-	=23-	=23-	=23-	=23-	=23-	=23-	=23-
.	.	1ccny	Quã(n)-	00r	.	00r	.	.	.	2r	.
2F/	-do	.	.	.	.	.	.	2a\	di	1cc	Quan-
4F/	di	4a\	-do	.	.	.	.	8fny\	ſde-	.	.
.	.	.	.	.	.	.	.	8e\	.	.	.
4.F/	ſde-	4a\	di	.	.	.	.	8f\	.	.	.
.	.	.	.	.	.	.	.	8g\	.	.	.
.	.	4.cc\	ſde-	.	.	.	.	4.a\	.	4f/	-do
8G/	.	.	.	.	.	.	.	.	.	.	.
8A/	.	.	.	.	.	.	.	.	.	4cc\	di
8B\	.	16b\	.	.	.	.	.	16g\	.	.	.
.	.	16a\	.	.	.	.	.	16f\	.	.	.
=24-	=24-	=24-	=24-	=24-	=24-	=24-	=24-	=24-	=24-	=24-	=24-
2c\	.	2g/	-gno e	.	.	.	.	2e\	.	8cc\	ſde-
.	.	.	.	.	.	.	.	.	.	8b\	.
.	.	.	.	.	.	.	.	.	.	8cc\	.
.	.	.	.	.	.	.	.	.	.	8dd\	.
2c\	-gno e	2g/	di	.	.	.	.	2e\	-gn'e	4ee\	.
.	.	.	.	.	.	.	.	.	.	2cc\	-gn'e
2G/	di	2g/	pie-	.	.	.	.	2d\	di	.	.
.	.	.	.	.	.	.	.	.	.	2b\	di
2A/	pie-	2e/	-ta-	.	.	.	.	2c/	pie-	.	.
!	!	!	!	!	!	!	!	!	!	!LO:SIC:v:t=custos g#	!
.	.	.	.	.	.	.	.	.	.	4a\	pie-
!	!	!	!	!	!	!	!	!	!	!LO:LB:g=original	!
=25-	=25-	=25-	=25-	=25-	=25-	=25-	=25-	=25-	=25-	=25-	=25-
1.E	-tad'	1.e	-de	0r	.	0r	.	1.B	-ta	1.g#X	-tad
2D/	ac-	2f#X/	ac-	.	.	.	.	2d\	d'ac-	2a\	ac-
=26-	=26-	=26-	=26-	=26-	=26-	=26-	=26-	=26-	=26-	=26-	=26-
1G	-ce-	1g	-ce-	1r	.	1r	.	1d	-ce-	1b	-ce-
1G	-ſa	1g	-ſa	2r	.	2r	.	2d\	-ſa	1b	-ſa
!	!	!	!	!	!	!	!	!LO:SIC:v:t=custos g	!	!	!
.	.	.	.	2G\	Ver	4r	.	2d\	Ver-	.	.
.	.	.	.	.	.	4B\	Ver	.	.	.	.
!	!	!	!	!	!	!	!	!LO:LB:g=original	!	!	!
=27-	=27-	=27-	=27-	=27-	=27-	=27-	=27-	=27-	=27-	=27-	=27-
1r	.	2r	.	4C/	me	4c\	me	1g	-me	2r	.
.	.	.	.	4.c\	l'al-	4.e\	l'al-	.	.	.	.
.	.	4r	.	.	.	.	.	.	.	2gny/	Ver-
.	.	.	.	8c\	-ma	8e\	-ma	.	.	.	.
!	!	!LO:SIC:v:t=custos cc	!	!	!	!	!	!	!	!	!
.	.	4b\	Ver-	4B\	mia	4d\	mia	.	.	.	.
!	!	!LO:LB:g=original	!	!	!	!	!	!	!	!	!
2r	.	4cc\	-me	2A\	Dea	4d\	De-	2r	.	4c/	-me
.	.	4.ee\	l'al-	.	.	4e\	-a	.	.	4.cc\	l'al-
4r	.	.	.	2G\	diſ-	2r	.	2g\	Ver-	.	.
.	.	8ee\	-ma	.	.	.	.	.	.	8cc\	-ma
4G/	Ver	4dd\	mia	.	.	.	.	.	.	4b\	mia
=28-	=28-	=28-	=28-	=28-	=28-	=28-	=28-	=28-	=28-	=28-	=28-
4A/	me	2ff\	Dea	2F\	-ſe	1r	.	4c/	-me	2a\	Dea
4.c\	l'al-	.	.	.	.	.	.	4.a\	l'al-	.	.
.	.	2ee\	diſ-	2C/	Son	.	.	.	.	2e/	diſ-
8c\	-ma	.	.	.	.	.	.	8a\	-ma	.	.
!LO:SIC:v:t=custos A	!	!	!	!	!	!	!	!	!	!	!
4B\	mia	.	.	.	.	.	.	4g\	mia	.	.
!LO:LB:g=original	!	!	!	!	!	!	!	!	!	!	!
1A	Dea	4dd\	-ſe	1D	pre-	4r	.	4f\	Dea	4f/	-ſe
.	.	4dd\	Son	.	.	4A/	ſon	2d\	diſ-	4a\	ſon
.	.	1a\	pre-	.	.	1f\	pre-	.	.	1dd\	pre-
.	.	.	.	.	.	.	.	4A/	-ſe	.	.
=29-	=29-	=29-	=29-	=29-	=29-	=29-	=29-	=29-	=29-	=29-	=29-
1A	diſ-	.	.	1AA	-ſa	.	.	1r	.	.	.
.	.	2a\	-ſa	.	.	2e\	-ſa	.	.	2cc#X\	-ſa
2G/	-ſe	2d/	di-	1r	.	1r	.	1B	Son	2r	.
2E/	Son	2g/	-ſse	.	.	.	.	.	.	2e/	ſon
=30-	=30-	=30-	=30-	=30-	=30-	=30-	=30-	=30-	=30-	=30-	=30-
1A	pre-	4r	.	0r	.	0r	.	1.c	pre-	1.e	pre-
.	.	4e/	son	.	.	.	.	.	.	.	.
.	.	1a	pre-	.	.	.	.	.	.	.	.
1E	-ſa	.	.	.	.	.	.	.	.	.	.
.	.	2g#X/	-ſa	.	.	.	.	2B/	-ſa	2e/	-ſa
=31-	=31-	=31-	=31-	=31-	=31-	=31-	=31-	=31-	=31-	=31-	=31-
1E	diſ-	1r	.	1AA	ſon	1A	ſon	1c#X	ſon	2r	.
!	!	!	!	!	!	!	!	!	!	!LO:SIC:v:t=custos dd	!
.	.	.	.	.	.	.	.	.	.	1a	ſon
2.F/	-se	2r	.	0D	pre-	0A	pre-	2.d\	pre-	.	.
!	!	!LO:SIC:v:t=custos dd	!	!	!	!	!	!	!	!LO:LB:g=original	!
.	.	1a\	son	.	.	.	.	.	.	2.dd\	pre-
4E/	Son	.	.	.	.	.	.	4e\	.	.	.
!	!	!LO:LB:g=original	!	!	!	!	!	!	!	!	!
=32-	=32-	=32-	=32-	=32-	=32-	=32-	=32-	=32-	=32-	=32-	=32-
!	!	!	!	!	!	!	!	!	!	!	!
1D	pre-	.	.	.	.	.	.	1f	.	.	.
.	.	.	.	.	.	.	.	.	.	8ccny\	.
.	.	.	.	.	.	.	.	.	.	8b\	.
.	.	1dd	pre-	.	.	.	.	.	.	2a\	.
!LO:N:vis=00	!	!	!	!LO:N:vis=00	!	!LO:N:vis=00	!	!LO:N:vis=00	!	!LO:N:vis=00	!
1%5E	-ſa.	.	.	1%5AA	-ſa.	1%5A	-ſa	1%5e	-ſa.	1%5a	-ſa.
.	.	4cc#X\	.	.	.	.	.	.	.	.	.
.	.	4b\	.	.	.	.	.	.	.	.	.
=33-	=33-	=33-	=33-	=33-	=33-	=33-	=33-	=33-	=33-	=33-	=33-
.	.	00cc#X	-ſa.	.	.	.	.	.	.	.	.
==	==	==	==	==	==	==	==	==	==	==	==
*-	*-	*-	*-	*-	*-	*-	*-	*-	*-	*-	*-
!!!system-decoration: [(s1,s2,s3,s4,s5,s6)]
!!!ENC: Andrzej Gręziak
!!!END: 2022-06-11
!!!ENC: Natalia Wrzos
!!!END: 2022-07-22
